X:1
T:Les Heures
T:L'Heure d'Azur
T:Augusta Holmès
T:(Holmès)
T:Les Heures
T:4. L'Heure d'Azur
T:OpenScore (CC0)
T:OpenScore (CC0)
T:OpenScore (CC0)
T:OpenScore (CC0)
T:OpenScore (CC0)
T:OpenScore (CC0)
C:Augusta Holmès
Z:Anonymous
Z:OpenScore (CC0)
%%score 1 { 2 | ( 3 4 5 ) }
L:1/8
Q:1/8=88
M:3/4
K:B
V:1 treble nm="Chant\nVoice"
V:2 treble nm="Piano"
V:3 bass 
V:4 bass 
V:5 bass 
V:1
"^Largo misterioso." z6 | z6 | z6 | z6 | z6 | z6 | z6 | z6 | z6 | z6 | z6 | z6 | z6 | z6 | z6 | %15
w: |||||||||||||||
 z6 | z6 |"^CHANT / VOICE" z6 | z6 | z2 z2 z!pp! D/ D/ | D D/ D/ D- D/ D/ D/ D/ D/ D/ | %21
w: ||||Lais- se-|moi te par- ler * sous les pro- fon- des|
 F2 F2 z!p! D/ D/ | D D/ D/ D3/2 D/ D/ D/ D/ D/ | F4 z D/ D/ | %24
w: bran- ches Où des|thyr- ses de fleurs s'é- ta- gent par mil-|liers, En cette|
 D D/ D/ D3/2 D/!<(! D/ D/ D/ D/!<)! |!>(! (F2!>)! E2)!p! (3D C D | (3:2:2B,2 D F2 (3B, C D || %27
w: heure où la lune, en lon- gues clar- tés|blan- ches, Fait de ce|bois un temple aux lu- mi-|
[M:2/4] C3 B, ||[M:3/4] B,2- B, z z2 | z2 z2 z!p! D/ D/ | D D/ D/ D3/2 D/ D/ D/ D/ D/ | %31
w: \- neux pi-|liers. _|Lais- se-|moi te par- ler comme en la nuit bé-|
 F2 F2 z!<(! D/ D/ | D D/ D/!<)! D z/!p! D/ !breath!D/ D/ D/ D/ | F4 z D/ D/ | %34
w: \- ni- e Où sou-|dain tu m'as dit: "je t'aime! em- por- te|moi!..", Où j'ai|
"^cresc." D D/ D/ D D/ D/ F F/ F/ |!f! (B2 E2)!p! (3D C D | %36
w: pris ta beau- té ton ar- deur, et ta|vi- e, Où pour tou-|
!<(! (3:2:2B,2 D!<)! (F2!mf! (3B,) C D ||[M:2/4]!<(! C3 B,!<)! ||[M:3/4] B,2- B, z z2 | z6 | z6 | %41
w: jours mon â- me s'est don-|\-née â|toi! *|||
 z6 | z6 | z6 | z6 | z6 | z6 | z6 | z2 z2 z!p! D/ D/ | D D/ D/ D D/ D/ D D/ D/ | F2 F2 z D/ D/ | %51
w: |||||||Lais- se-|moi te par- ler des am- ours é- ter-|nel- les, Du pa-|
 D D/ D/ D3/2 D/ D/ D/ D/ D/ | F4 z D/ D/ |!<(! D D/ D/ D D/ D/ F F/ F/!<)! | %54
w: \-ys mer- veil- leux où nous i- rons un|jour, Toi, ber-|cée en mes bras, moi, nei- geux de tes|
!mf! (B2 E2-) E/ z/!<(! E/ E/ | D D/ D/ ^^F F/ F/ A A/ A/!<)! ||[M:2/4]!f! c2- c z || %57
w: ai- les, * Sans re-|grets, sans re- mords, sans adi- eux, sans re-|tour! *|
[M:3/4][Q:1/4=80]"^Più stretto"!f! d2 c"^Agitato"!>(! B F G ||[M:2/4] (3D C D (3B, C D!>)! || %59
w: Ah! lais- se- moi par-|ler des a- mours é- ter-|
[M:3/4][Q:1/4=44]"^Primo Tempo. Lento"!p! (B6 | B,2-) B, z"^Largement"!p! (3D C D | %61
w: nel-|les, * Toi qui m'as|
!<(! (3:2:2B,2 D!<)!"^cresc." F2 (3!tenuto!B, !tenuto!C !tenuto!D | %62
w: mis au coeur l'in- des- truc-|
!f! !tenuto!C4- (3:2:2C2 !tenuto!B, | !tenuto!B,2- B, z z2 | z6 | z6 | z6 | z6 | z6 | z6 | z6 | %71
w: tible * A-|mour! *||||||||
 z6 |] %72
w: |
V:2
!pp! (!arpeggio![Bdb]2 !arpeggio![Bdg]3 !arpeggio![Bdf] | !arpeggio![Aea]2 !arpeggio![Aeg]4) | %2
 (!arpeggio![Bdb]2 !arpeggio![Bdg]3 !arpeggio![Bdf] | !arpeggio![Aea]2 !arpeggio![Aeg]4) | %4
!p!!<(! (!arpeggio![ef]2 !arpeggio![efc']2 !arpeggio![efc'e']2 | %5
 !arpeggio![ef=c'e']2 !arpeggio![=df=c'=d']2)!<)!!8va(! (!arpeggio![=ac'=a']2 | %6
!>(! !arpeggio![=a=c'=a']2 !arpeggio![g^bg']2 !arpeggio![fbf']2 | %7
 !arpeggio![ad'a']2 !arpeggio![d'f'd'']2 !arpeggio![d'f'd'']2)!>)! | %8
!pp! !arpeggio![_e'=g'_e'']2!8va)! (!arpeggio![=c_e=g=c']3 !arpeggio![_B_e=g_b] | %9
!<(! !arpeggio![=d_a=d']2!<)!!>(! !arpeggio![da=c']4)!>)! | %10
!pp! (!arpeggio![^c^e^g^c']2 !arpeggio![Acea]3 !arpeggio![Gceg] | %11
!<(! !arpeggio![^Bf^b]2!<)!!mp!!>(! !arpeggio![Bfa]4)!>)! |!p! [=Bdf=b] z!>(! ([Bdg]3 [Bdf])!>)! | %13
!f! !^![dfd'] z!>(! ([Bdg]3!>)! [Bdf]) |!f! !^![fbd'f'] z!>(! ([Bdg]3!>)! [Bdf]) | %15
!f!!8va(! !^![ad'f'a']!8va)! z!>(! ([Bdg]3!>)! [Bdf]) | %16
!ff!!8va(! !^![b=d'=g'b']!8va)! z !^![=GBe]3 !^![GB=d] | [F=cf]2!>(! [Fce]2- [Fce] z!>)! | %18
!p!!8va(!"_dim." !arpeggio![=df=c'=d']2 !arpeggio![efc'e']4 | %19
 !arpeggio![=fb=f']2 !arpeggio![^fae'^f']4!8va)! | %20
!pp! (!arpeggio![Bdb]2 !arpeggio![Bdg]3 !arpeggio![Bdf] | %21
!>(! !arpeggio![Aea]2!>)! !arpeggio![Aeg]4) | %22
!pp! (!arpeggio![Bdb]2 !arpeggio![Bdg]3 !arpeggio![Bdf] | !arpeggio![Aea]2 !arpeggio![Aeg]4) | %24
!<(! (!arpeggio![=Ad=a]2 !arpeggio![Bdg]3 !arpeggio![Bdf]!<)! | %25
!>(! !arpeggio![d=ac']2 !arpeggio![e=ge'])!>)! z!p! (!arpeggio![^Ac^a]2 | %26
!>(! [Bb]2 [dd']2-)!>)! [dd'] z ||[M:2/4]!pp! (!arpeggio![Beb]2 !arpeggio![Aea]2) || %28
[M:3/4]!p! (!arpeggio![Bdb]2!<(! !arpeggio![Bdg]3 !arpeggio![Bdf]!<)! | %29
 !arpeggio![Aea]2!>(! !arpeggio![Aeg]4)!>)! | %30
!pp! (!arpeggio![Bdb]2 !arpeggio![Bdg]3 !arpeggio![Bdf] | !arpeggio![Aea]2 !arpeggio![Aeg]4) | %32
!pp! (!arpeggio![Bdb]2 !arpeggio![Bdg]3 !arpeggio![Bdf] | !arpeggio![Aea]2 !arpeggio![Aeg]4) | %34
"_cresc." (!arpeggio![=Ad=a]2 !arpeggio![Bdg]3 !arpeggio![Bdf] | %35
!f! !arpeggio![d=ac']2 !arpeggio![e=ge']) z!p! ([^^F^A]2 |!<(! [GB]2!<)!!>(! [Bd]2-) [Bd]!>)! z || %37
[M:2/4]!p! ([Beb]2"_cresc." [Aea]2) ||[M:3/4]!f! ([Bdb]2 [GBdg]3 [FBdf] |!<(! [Aea]2!<)! [GAeg]4) | %40
"^Appassionato."!f! [EAe][FAef] !^![GAeg]2 !^![efae']2 |!<(! !^![d^^fd']2!<)! !^![c^^fc']4 | %42
!f! ([^B^f^b]2 [=A=cf=a]3 [G^Bfg] |!ff! [=B^e=b]2)!8va(! !^![gbg']2 !^![gbg']2 | %44
 !^![gbg']2"_dim." ([fbf'][dfd']!8va)! [Bdb][Bd] |!p! [Bdf]) z"_dim." (.[=GB=g]2 .[GBg]2 | %46
 .[=GB=g]2 .[GBg]2 .[GBg]2) |!pp! ([^GB^g]6 | [Aca]6 | %49
!pp! !arpeggio![Bdb]2) (!arpeggio![Bdg]3 !arpeggio![Bdf] | !arpeggio![Aea]2 !arpeggio![Aeg]4) | %51
!pp! (!arpeggio![Bdb]2 !arpeggio![Bdg]3 !arpeggio![Bdf] | %52
!>(! !arpeggio![Aea]2!>)! !arpeggio![Aeg]4) | %53
!<(! (!arpeggio![=Ad=a]2 !arpeggio![Bdg]3 !arpeggio![Bdf]!<)! | %54
!mf! !arpeggio![d=ac']2 !arpeggio![e=ge']2-) [ege'] z |!mf! ([^^Fc^^f]2"_cresc." [Fce]3 [Fcd] || %56
[M:2/4]!f! [GAeg]2 [FAef]-)[FAef]/ z/ ||[M:3/4]!f! [DFd]6- ||[M:2/4] [DFd] z z2 || %59
[M:3/4]!p!!>(! !arpeggio![Bdb]6 | !arpeggio![Beb]2-!>)! [Beb] z!p! ([CD^^F]2 | %61
!<(! [B,DG]2!<)! [B,DB]2-) [B,DB] z |!mf! !^![Beb]2"_cresc." !^![Aea]4 | %63
!f! !^![Bdb]2 ([GBdg]3 [FBdf]) |!f! !^![dfd']2 ([GBdg]3 [FBdf]) | %65
!f! !^![fbd'f']2 ([GBdg]3 [FBdf]) |!ff!!8va(! [b=f'b']2!8va)! [=AB=d=f=a]3 [=GBf=g] | %67
!p!"_dim." !arpeggio![B=d=f=gb]2!8va(! !arpeggio![=dfb=d']2 !arpeggio![f^gbd'=f']2 | %68
!pp!"_dim." !arpeggio![^fb^d'^f']6 | !arpeggio![fbd'f']6 |!ppp! !arpeggio![fbd'f']6- | %71
 [fbd'f']2!8va)! z2 !fermata!z2 |] %72
V:3
!ped! z2 ([DF]3 [DF]!ped-up! | ([CE]2 [CF]4)) |!ped! z2 ([DF]3 [DF]!ped-up! | ([CE]2 [CF]4)) | %4
[K:treble] (A4 GF) | (=AB c2- c=D | ^DFG^A) (^B2 | ^B6) | %8
"_Una corda." !arpeggio![_B,_E=G_B]2 (!arpeggio![=CEG]3 !arpeggio![B,EG]) | %9
[K:bass] z/ (_B,/=C/=D/ _A4) | !arpeggio![^G,^C^E^G]2 (!arpeggio![A,CE]3 !arpeggio![G,CE]) | %11
 z/ (G,/A,/^B,/ F4) | z2 (!arpeggio![F,=B,DG]3 !arpeggio![F,B,DF]) | %13
!ped! z2 (!arpeggio![F,B,DG]3 !arpeggio![F,B,DF])!ped-up! | %14
!ped! z2 (!arpeggio![F,B,DG]3 !arpeggio![F,B,DF])!ped-up! | %15
!ped! z2 (!arpeggio![F,B,DG]3 !arpeggio![F,B,DF])!ped-up! | %16
!ped! z2 !arpeggio!!^![=D,=G,B,E]3 !arpeggio!!^![D,G,B,=D]!ped-up! | z/ (=D,/=A,/B,/ =C4) | %18
 (B,2 =A,4 | =G,2 F,4) |!ped! z2 ([DF]3 [DF]!ped-up! |!ped! (E2 F4))!ped-up! | %22
!ped! z2 ([DF]3!ped-up! [DF] |!ped! (E2 F4))!ped-up! | %24
!ped! z2 (!arpeggio![B,D=A]3 !arpeggio![B,DA]!ped-up! | %25
 !arpeggio![F,B,DF]2 !arpeggio![=G,B,=G]) z !arpeggio![^A,D^^F]2 | %26
 !arpeggio![G,DG]2 !arpeggio![F,B,DF]2- [F,B,DF] z ||[M:2/4] z2 F,2- || %28
[M:3/4]!ped! F, z (!arpeggio![F,B,DG]3 !arpeggio![F,B,DF])!ped-up! | %29
!ped! z/ (F,/G,/A,/ E4)!ped-up! | z2 ([DF]3 [DF] | (E2 F4)) | z2 ([DF]3 [DF] | (E2 F4)) | %34
 z2 !arpeggio![B,D=A]3 !arpeggio![B,DA] | !arpeggio![F,B,DF]2 !arpeggio![=G,B,E=G] z (3(DCD | %36
 (3:2:2B,2 D !arpeggio![B,DF]2-) [B,DF] z ||[M:2/4]!ped! !///-!F,,2 F,2!ped-up! || %38
[M:3/4]!ped! z2 ([G,B,D]3 [F,B,D])!ped-up! |!ped! z/ (F,/G,/A,/ E4)!ped-up! | %40
!ped! !^!E,!^!F, !^!G,2 !^!E2!ped-up! |!ped! z/ (D,/^E,/^^F,/ C4)!ped-up! | %42
!ped! z2 (=A,3 G,!ped-up! |!ped! B,2) !^!G2!ped-up! !arpeggio!!^![=DG]2 | %44
 ((((!arpeggio!!^![F,B,^DG]2 [F,B,DF]2)))) (G=G | F2 =F2 E2 | _E2 =D2 C2) | (^E6 | =E2-) E z z2 | %49
!ped! z2 ([DF]3 [DF]!ped-up! | (E2 F4)) |!ped! z2 ([DF]3 [DF]!ped-up! | (E2 F4)) | %53
 z2 !arpeggio![B,D=A]3 !arpeggio![B,DA] | !arpeggio![F,B,DF]2 !arpeggio![=G,B,E=G]2- [G,B,EG] z | %55
 z2 ([A,C]3 [A,D] ||[M:2/4] [F,A,E]2-) [F,A,E]-[F,A,E]/ z/ ||[M:3/4]!ped! [F,B,]6- || %58
[M:2/4] [F,B,] z z2!ped-up! ||[M:3/4][K:treble] (=A6 | =G2-) G z[K:bass] ([D,A,]2 | %61
 G,2 F,2- F,) z |!ped! !///-!F,,,3 F,,3!ped-up! |!ped! z2 ([G,B,D]3 [F,B,D])!ped-up! | %64
!ped! z2 ([G,B,D]3 [F,B,D])!ped-up! |!ped! z2 ([G,B,D]3 [F,B,D])!ped-up! | %66
!ped! z2 [=A,B,=D=F]3 [=G,B,DF]!ped-up! | %67
[K:treble]"_Una corda." !arpeggio![=G,B,=D=F]2 !arpeggio![B,DF=G]2 !arpeggio![DFGB]2 | %68
[K:bass]!ped!{/[B,,,B,,]} !arpeggio![F,B,^D^F]6!ped-up! |!ped! !arpeggio![F,B,DF]6!ped-up! | %70
!ped! !arpeggio![F,B,DF]6-!ped-up! | [F,B,DF]2 z2 !fermata!z2 |] %72
V:4
 B,,,2- B,,, z z2 | z6 | B,,,2- B,,, z z2 | z6 |[K:treble] z6 | =D4- D z | D6- | D6 | x6 | %9
[K:bass] _B,,4- B,, z | z6 | G,,4- G,, z | F,,4- F,, z | F,,4- F,, z | F,,4- F,, z | F,,4- F,, z | %16
 [=G,,,=G,,]4- [G,,,G,,] z | =D,,4- D,, z | z6 |{/F,,} F,,4- F,, z | B,,,2- B,,, z z2 | z6 | %22
 B,,,2- B,,, z z2 | z6 | B,,2- B,, z z2 | x6 | x6 ||[M:2/4] (F,,4 ||[M:3/4] B,,,2-) B,,, z z2 | %29
 F,,4- F,, z | B,,,2- B,,, z z2 | z6 | B,,,2- B,,, z z2 | z6 | B,,2- B,, z z2 | z4 (D,2 | %36
 G,2 !arpeggio!F,2-) F, x ||[M:2/4] x4 ||[M:3/4] [B,,,B,,]4- [B,,,B,,] z | %39
 [F,,,F,,]4- [F,,,F,,] z | F,,4- F,, z | [D,,D,]4- [D,,D,] z | [G,,,G,,]4- [G,,,G,,] z | %43
{C,,C,} [C,,C,]2- [C,,C,] z !arpeggio![^E,B,]2 | x6 | x6 | x6 | z2 F,4- | F,2 F,4 | %49
 B,,,2- B,,, z z2 | z6 | B,,,2- B,,, z z2 | z6 | B,,2- B,, z z2 | x6 | [D,,D,]2- [D,,D,] z z2 || %56
[M:2/4] x4 ||[M:3/4]{/[B,,,B,,]} [B,,,B,,]6- ||[M:2/4] [B,,,B,,] z z2 ||[M:3/4][K:treble] F6 | %60
 x4[K:bass] x2 | x6 | x6 | [B,,,F,,]4- [B,,,F,,] z | [B,,,F,,]4- [B,,,F,,] z | %65
 [B,,,F,,]4- [B,,,F,,] z | [=G,,,=G,,]4- [G,,,G,,] z |[K:treble] x6 |[K:bass] x6 | x6 | x6 | x6 |] %72
V:5
 x6 | x6 | x6 | x6 |[K:treble] x6 | x6 | z2 G4- | G6 | x6 |[K:bass] x6 | x6 | x6 | x6 | x6 | x6 | %15
 x6 | x6 | x6 | x6 | x6 | x6 | C2- C4 | x6 | C2- C4 | x6 | x6 | x6 ||[M:2/4] x4 ||[M:3/4] x6 | x6 | %30
 x6 | C2- C4 | x6 | C2- C4 | x6 | x6 | x6 ||[M:2/4] x4 ||[M:3/4] x6 | x6 | x6 | x6 | x6 | x6 | x6 | %45
 x6 | x6 | x6 | x6 | x6 | C2- C4 | x6 | C2- C4 | x6 | x6 | x6 ||[M:2/4] x4 ||[M:3/4] x6 || %58
[M:2/4] x4 ||[M:3/4][K:treble] x6 | x4[K:bass] x2 | x6 | x6 | x6 | x6 | x6 | x6 |[K:treble] x6 | %68
[K:bass] x6 | x6 | x6 | x6 |] %72

